components/AppDevelopmentCommon/Svg/svgs/titledHtml.svg

<svg width="92" height="146" viewBox="0 0 92 146" fill="none" xmlns="http://www.w3.org/2000/svg">
<g>
<path d="M19.4766 0H23.6094V4.09687H27.4187V0H31.5516V12.3984H27.4187V8.26562H23.6453V12.3984H19.4766V0ZM37.0141 4.13281H33.3664V0H44.8125V4.13281H41.1469V12.3984H37.0141V4.13281ZM46.6273 0H50.9578L53.6172 4.36641L56.2766 0H60.607V12.3984H56.4742V6.25312L53.5812 10.7094L50.6883 6.25312V12.3984H46.6273V0ZM62.6555 0H66.7883V8.30156H72.6461V12.3984H62.6555" fill="black"/>
<path d="M19.3359 84.633L13.4062 18.0768H78.5969L72.6672 84.5971L45.9477 92.0002" fill="#5E5E5E"/>
<path d="M46 86.3398V23.5391H72.6477L67.5625 80.3203" fill="#878787"/>
<path d="M25.5156 31.6791H46V39.8369H34.4641L35.2188 48.1924H46V56.3322H27.7437L25.5156 31.6791ZM28.1031 60.4291H36.2969L36.8719 66.9517L46 69.3955V77.9127L29.2531 73.2408" fill="#EBEBEB"/>
<path d="M66.4133 31.6791H45.9648V39.8369H65.6586L66.4133 31.6791ZM64.9219 48.1924H45.9648V56.3502H56.0273L55.075 66.9517L45.9648 69.3955V77.8767L62.6758 73.2408" fill="white"/>
</g>
<path d="M34.052 123.454V136H32.414V130.312H26.024V136H24.386V123.454H26.024V128.962H32.414V123.454H34.052ZM44.5709 123.454V124.786H41.1509V136H39.5129V124.786H36.0749V123.454H44.5709ZM59.3132 123.544V136H57.6752V126.712L53.5352 136H52.3832L48.2252 126.694V136H46.5872V123.544H48.3512L52.9592 133.84L57.5672 123.544H59.3132ZM63.7291 134.668H68.1211V136H62.0911V123.454H63.7291V134.668Z" fill="#A0A0A0"/>
<defs>
<clipPath id="clip0_5535_15376">
<rect width="92" height="92" fill="white"/>
</clipPath>
</defs>
</svg>

<svg xmlns="http://www.w3.org/2000/svg" width="92" height="146" fill="none">
  <path fill="#000" d="M19.477 0h4.132v4.097h3.81V0h4.133v12.398h-4.133V8.266h-3.774v4.132h-4.168V0Zm17.537 4.133h-3.648V0h11.447v4.133h-3.666v8.265h-4.133V4.133ZM46.627 0h4.33l2.66 4.366L56.277 0h4.33v12.398h-4.133V6.253l-2.893 4.456-2.893-4.456v6.145h-4.06V0Zm16.029 0h4.132v8.302h5.858v4.096h-9.99" />
  <path fill="#5E5E5E" d="m19.336 84.633-5.93-66.556h65.19l-5.929 66.52L45.947 92" />
  <path fill="#878787" d="M46 86.34v-62.8h26.648l-5.085 56.78" />
  <path fill="#EBEBEB" d="M25.516 31.68H46v8.157H34.464l.755 8.355H46v8.14H27.744L25.516 31.68Zm2.587 28.75h8.194l.575 6.522L46 69.396v8.517L29.253 73.24" />
  <path fill="#fff" d="M66.413 31.68H45.965v8.157h19.694l.754-8.158Zm-1.491 16.512H45.965v8.158h10.062l-.952 10.602-9.11 2.444v8.48l16.71-4.635" />
  <path fill="#A0A0A0" d="M34.052 123.454V136h-1.638v-5.688h-6.39V136h-1.638v-12.546h1.638v5.508h6.39v-5.508h1.638Zm10.519 0v1.332h-3.42V136h-1.638v-11.214h-3.438v-1.332h8.496Zm14.742.09V136h-1.638v-9.288L53.535 136h-1.152l-4.158-9.306V136h-1.638v-12.456h1.764l4.608 10.296 4.608-10.296h1.746Zm4.416 11.124h4.392V136h-6.03v-12.546h1.638v11.214Z" />
</svg>
